2 Export/Icons/Brands/WhatsApp.svg

<svg xmlns="http://www.w3.org/2000/svg" xmlns:xlink="http://www.w3.org/1999/xlink" width="24" height="24" viewBox="0 0 24 24">
  <defs>
    <path id="whatsapp-a" d="M16.1235,13.7865 C15.89775,13.674 14.79825,13.13625 14.5935,13.062 C14.38875,12.98625 14.23875,12.9495 14.08875,13.1745 C13.941,13.39575 13.5105,13.8975 13.38075,14.046 C13.2495,14.19225 13.119,14.2035 12.89625,14.10225 C12.67125,13.98975 11.949,13.7535 11.094,12.9885 C10.428,12.39225 9.981,11.661 9.849,11.436 C9.7185,11.211 9.83475,11.08725 9.9465,10.97475 C10.0485,10.8735 10.17225,10.716 10.28475,10.5825 C10.39425,10.44675 10.43025,10.35675 10.5075,10.2105 C10.5825,10.053 10.54425,9.92925 10.48875,9.8175 C10.4325,9.705 9.98475,8.6025 9.79725,8.163 C9.61725,7.725 9.432,7.7805 9.29325,7.7805 C9.16425,7.76925 9.015,7.76925 8.865,7.76925 C8.715,7.76925 8.47275,7.82475 8.26725,8.0385 C8.0625,8.2635 7.4835,8.8035 7.4835,9.89475 C7.4835,10.986 8.286,12.0435 8.39775,12.201 C8.5095,12.34725 9.9765,14.59725 12.22275,15.56475 C12.75825,15.78975 13.17525,15.92475 13.50075,16.0365 C14.03625,16.20675 14.5245,16.18275 14.91075,16.12725 C15.34125,16.059 16.236,15.5865 16.42275,15.05775 C16.614,14.529 16.614,14.09025 16.55775,13.989 C16.50225,13.88775 16.35525,13.8315 16.13025,13.73025 M12.04575,19.3125 L12.03375,19.3125 C10.70625,19.3125 9.39075,18.9525 8.2425,18.2775 L7.9725,18.117 L5.16,18.84825 L5.91375,16.1145 L5.7345,15.83325 C4.992,14.65125 4.5975,13.29 4.5975,11.88825 C4.5975,7.8045 7.93875,4.4745 12.054,4.4745 C14.0445,4.4745 15.91275,5.25075 17.31975,6.657 C18.726,8.05125 19.5015,9.9195 19.5015,11.8995 C19.4985,15.9825 16.1565,19.31325 12.05025,19.31325 M18.39,5.58675 C16.68,3.93375 14.43,3 12.03375,3 C7.09725,3 3.078,7.0005 3.07575,11.91975 C3.07575,13.49175 3.4875,15.02475 4.272,16.3785 L3,21 L7.75125,19.761 C9.06075,20.46825 10.53375,20.844 12.03375,20.84625 L12.03825,20.84625 C16.977,20.84625 20.99775,16.84425 21,11.92425 C21,9.54225 20.07,7.3005 18.37875,5.616"/>
  </defs>
  <g fill="none" fill-rule="evenodd">
    <polygon points="0 0 24 0 24 24 0 24"/>
    <mask id="whatsapp-b" fill="#fff">
      <use xlink:href="#whatsapp-a"/>
    </mask>
    <use fill="#000" xlink:href="#whatsapp-a"/>
    <g fill="#000" mask="url(#whatsapp-b)">
      <rect width="24" height="24"/>
    </g>
  </g>
</svg>

<svg xmlns="http://www.w3.org/2000/svg" xmlns:xlink="http://www.w3.org/1999/xlink" width="24" height="24" viewBox="0 0 24 24">
  <defs>
    <path id="whatsapp-a" d="M16.123 13.787c-.225-.113-1.325-.65-1.53-.725-.204-.076-.354-.112-.504.113-.148.22-.579.723-.708.871-.132.146-.262.158-.485.056-.225-.112-.947-.348-1.802-1.114-.666-.596-1.113-1.327-1.245-1.552-.13-.225-.014-.349.098-.461.102-.101.225-.259.338-.393.11-.135.145-.225.223-.372.075-.157.036-.28-.02-.393-.056-.112-.503-1.215-.69-1.654-.18-.438-.366-.383-.505-.383-.129-.01-.278-.01-.428-.01a.845.845 0 0 0-.598.269c-.204.225-.783.764-.783 1.856 0 1.091.802 2.149.914 2.306.111.146 1.579 2.396 3.825 3.364.535.225.952.36 1.278.472.535.17 1.024.146 1.41.09.43-.068 1.325-.54 1.512-1.07.191-.528.191-.967.135-1.068-.056-.101-.203-.158-.428-.259m-4.084 5.582h-.012a7.503 7.503 0 0 1-3.792-1.035l-.27-.16-2.812.731.754-2.733-.18-.282a7.401 7.401 0 0 1-1.136-3.945c0-4.083 3.34-7.413 7.456-7.413a7.4 7.4 0 0 1 5.266 2.182 7.341 7.341 0 0 1 2.181 5.242c-.003 4.084-3.345 7.414-7.45 7.414M18.39 5.587A9.106 9.106 0 0 0 12.034 3c-4.937 0-8.956 4-8.958 8.92 0 1.572.411 3.105 1.196 4.458L3 21l4.751-1.239a9.047 9.047 0 0 0 4.283 1.085h.004c4.939 0 8.96-4.002 8.962-8.922 0-2.382-.93-4.623-2.621-6.308"/>
  </defs>
  <g fill="none" fill-rule="evenodd">
    <polygon points="0 0 24 0 24 24 0 24"/>
    <mask id="whatsapp-b" fill="#fff">
      <use xlink:href="#whatsapp-a"/>
    </mask>
    <use fill="#000" xlink:href="#whatsapp-a"/>
    <g fill="#000" mask="url(#whatsapp-b)">
      <rect width="24" height="24"/>
    </g>
  </g>
</svg>
